svg/fluentui-system-icons/ic_fluent_border_top_20_regular.svg

<svg width="20" height="20" viewBox="0 0 20 20" fill="none" xmlns="http://www.w3.org/2000/svg">
<path d="M11.5 17C11.7761 17 12 16.7761 12 16.5C12 16.2239 11.7761 16 11.5 16H8.5C8.22386 16 8 16.2239 8 16.5C8 16.7761 8.22386 17 8.5 17H11.5ZM14.4607 15.9466C15.1952 15.7735 15.7734 15.1953 15.9466 14.4608C15.948 14.4399 15.9507 14.4188 15.9548 14.3977C16.0074 14.1267 16.2758 13.9457 16.5468 13.9984C16.8179 14.0511 16.9989 14.3194 16.9462 14.5904C16.9414 14.6149 16.9349 14.6387 16.9268 14.6616C16.6734 15.7872 15.7873 16.6733 14.6618 16.9267C14.6388 16.9349 14.615 16.9414 14.5904 16.9462C14.3194 16.9989 14.0511 16.8179 13.9984 16.5468C13.9457 16.2758 14.1267 16.0074 14.3977 15.9548C14.4188 15.9507 14.4398 15.948 14.4607 15.9466ZM16.9268 5.33838C16.9349 5.36129 16.9414 5.38505 16.9462 5.40954C16.9989 5.68061 16.8179 5.94893 16.5468 6.00162C16.2758 6.05431 16.0075 5.87333 15.9548 5.60226C15.9507 5.58117 15.948 5.56009 15.9466 5.53913C15.7385 4.65673 14.946 4 14 4H6C5.05406 4 4.26151 4.65671 4.05337 5.53908C4.05203 5.56005 4.04935 5.58115 4.04525 5.60226C3.99255 5.87333 3.72423 6.05431 3.45316 6.00162C3.1821 5.94893 3.00111 5.68061 3.0538 5.40954C3.05856 5.38507 3.06507 5.36134 3.07318 5.33844C3.37445 3.99988 4.57046 3 6 3H14C15.4295 3 16.6255 3.99985 16.9268 5.33838ZM5.40954 16.9462C5.38498 16.9414 5.36116 16.9349 5.33819 16.9267C4.21265 16.6733 3.32661 15.7872 3.07322 14.6617C3.06508 14.6387 3.05855 14.615 3.05379 14.5904C3.0011 14.3194 3.18208 14.0511 3.45315 13.9984C3.72422 13.9457 3.99254 14.1267 4.04523 14.3977C4.04933 14.4188 4.05201 14.4399 4.05335 14.4608C4.22657 15.1953 4.80475 15.7735 5.53928 15.9466C5.56019 15.948 5.58121 15.9507 5.60226 15.9548C5.87333 16.0074 6.05431 16.2758 6.00162 16.5468C5.94893 16.8179 5.68061 16.9989 5.40954 16.9462ZM3.5 8C3.77614 8 4 8.22386 4 8.5V11.5C4 11.7761 3.77614 12 3.5 12C3.22386 12 3 11.7761 3 11.5V8.5C3 8.22386 3.22386 8 3.5 8ZM17 8.5C17 8.22386 16.7761 8 16.5 8C16.2239 8 16 8.22386 16 8.5V11.5C16 11.7761 16.2239 12 16.5 12C16.7761 12 17 11.7761 17 11.5V8.5Z" fill="#212121"/>
</svg>

<svg xmlns="http://www.w3.org/2000/svg" width="20" height="20"><path d="M11.5 17a.5.5 0 0 0 0-1h-3a.5.5 0 0 0 0 1h3Zm2.96-1.053a2.003 2.003 0 0 0 1.487-1.486.508.508 0 0 1 .6-.462.509.509 0 0 1 .38.663 3.004 3.004 0 0 1-2.265 2.265.509.509 0 0 1-.663-.38.508.508 0 0 1 .462-.6Zm2.467-10.609a.504.504 0 1 1-.98.201A2 2 0 0 0 14 4H6a2 2 0 0 0-1.947 1.54.509.509 0 0 1-.6.463.509.509 0 0 1-.38-.665A3.001 3.001 0 0 1 6 3h8c1.43 0 2.625 1 2.927 2.338ZM5.41 16.946a.494.494 0 0 1-.072-.02 3.004 3.004 0 0 1-2.265-2.264.509.509 0 0 1 .38-.663.509.509 0 0 1 .6.462 2.003 2.003 0 0 0 1.486 1.486.506.506 0 0 1 .463.6.509.509 0 0 1-.592.4ZM3.5 8a.5.5 0 0 1 .5.5v3a.5.5 0 0 1-1 0v-3a.5.5 0 0 1 .5-.5Zm13.5.5a.5.5 0 0 0-1 0v3a.5.5 0 0 0 1 0v-3Z"/></svg>
